X: 10365
T: Dónal Agus Mórag
R: jig
M: 6/8
K: Adorian
a|a2g e2g|a2g e2g|a2g b2g|a2g e2f|
g2a b2a|g2f g3|d2B c2d|e2f g3|
B3 B2G|A3 A2G|BBB B2G|A3 A3|
B2B BAG|c2d e2f|g2e d2B|A3 A3-|
A6-|A6|z6||

